X:1
T:Title
%%score { ( 1 3 ) | ( 2 4 ) }
L:1/8
M:3/4
K:Ab
V:1 treble nm="Grand Piano"
V:3 treble 
V:2 bass 
V:4 bass 
V:1
 z2 z2[Q:1/4=100] [CE][CA] | [Ec]3 [CA] [CB][CA] | [DA]2 [DG]2 Bc | d3 [EB] [EA][EB] | %4
[M:2/4] [Ec]4 |[M:1/4] [CE][CA] |[M:3/4] [Ec]3 [Ec] [Ed][Ee] | [Fe] [Fd]3 AB | c4 z2 | %9
[M:2/4] [CA]4 |[M:4/4] z2 B6 | z2 c6 | z2 e6 | z2 B4 z2 | z2 c6 | z2 d6 | %16
 z2 c6[Q:1/4=97][Q:1/4=94][Q:1/4=91][Q:1/4=88][Q:1/4=84][Q:1/4=81][Q:1/4=78] |[M:3/4] z2 A4- | %18
 A2 z2 z2 |] %19
V:2
 z2 z2 [A,,A,][A,,A,] | [A,,A,]3 [A,,E,] [A,,E,][A,,E,] | [B,,E,]2 [B,,E,]2 [E,G,E][E,A,E] | %3
 [E,G,E]3 [D,G,] [C,A,][B,,G,] |[M:2/4] [A,,A,]4 |[M:1/4] [A,,A,][A,,A,] | %6
[M:3/4] [A,,A,]3 [A,,A,] [B,,G,][C,A,] | [D,A,] [D,A,]3 z2 | %8
 [E,A,E][E,A,] [E,A,][D,A,] [E,A,][E,G,] |[M:2/4] [A,,A,]4 |[M:4/4] z4 [E,G,][E,G,] .[E,G,]2 | %11
 z2 z [A,,A,] [C,A,][E,A,] A,2 | z2 E6 | A,A,E,D, [F,=D][F,D] .[G,_D]2 | %14
 z2 z [A,,A,] [A,,A,][A,,A,] .[A,,A,]2 | z2 z [D,A,] [D,A,][D,A,] .[D,A,]2 | %16
 z2 z [E,E] [E,E][E,E][E,E]D, |[M:3/4] E,E, z C DD | C2 z2 z2 |] %19
V:3
 x6 | x6 | x6 | x6 |[M:2/4] x4 |[M:1/4] x2 |[M:3/4] x6 | x6 | z E E[Fd] [Ec][DB] |[M:2/4] x4 | %10
[M:4/4] GA z2 DDDB | AB z E EE E2 | cd z2 CCC[EAc] | [FAd][EAc][EG][EG] AABE | AB z E EEEA | %15
 Bc z F FFFF | BA z A AAA[FAd] |[M:3/4] [EAc][DGB] CE FF | E2 z2 z2 |] %19
V:4
 x6 | x6 | x6 | x6 |[M:2/4] x4 |[M:1/4] x2 |[M:3/4] x6 | x6 | x6 |[M:2/4] x4 |[M:4/4] x8 | x8 | %12
 [A,E][A,B,E] [A,C]2 A,A,A,A, | x8 | x8 | x8 | x8 |[M:3/4] z2 A,,4- | A,,2 z2 z2 |] %19

